!!!COM: Haydn, Franz Joseph 
!!!OPR: Symphony in F Major 
!!!OTL: Allegro 
!!!OMV: 4 
!!!SCT: H I:40 
!!!SCA: Thematisch-bibliographisches Werkevererzeichnis (A. van Hoboken) 
!!!YOR: Breitkopf & Härtel Edition 
!!!EED: Frances Bennion 
!!!ENC: Frances Bennion 
!!!CDT: 1732/3/31/-1809/5/31/
!!!OCY: Österreich 
!!!YEC: Copyright (c) 1994, 2000 Center for Computer Assisted Research in the Humanities 
!!!YEM: Rights to all derivative editions reserved. 
!!!YEM: Refer to licensing agreement for further details. 
!!!YEN: United States of America 
**kern	**kern	**kern	**kern	**kern	**kern	**kern	**kern
*k[b-]	*k[b-]	*k[]	*k[]	*k[b-]	*k[b-]	*k[b-]	*k[b-]
*F:	*F:	*F:	*F:	*F:	*F:	*F:	*F:
*clefF	*clefF	*clefF	*clefF	*clefF	*clefF	*clefC3	*clefF4
*M2/2	*M2/2	*M2/2	*M2/2	*M2/2	*M2/2	*M2/2	*M2/2
*tb16	*tb16	*tb16	*tb16	*tb16	*tb16	*tb16	*tb16
=1	=1	=1	=1	=1	=1	=1	=1
1r	1r	1r	1r	1r	1ff	4r	4r
.	.	.	.	.	.	4F	4FF
.	.	.	.	.	.	4A	4AA
.	.	.	.	.	.	4c	4C
=2	=2	=2	=2	=2	=2	=2	=2
1r	1r	1r	1r	1r	1cc	4f	4F
.	.	.	.	.	.	8f	8F
.	.	.	.	.	.	8g	8G
.	.	.	.	.	.	4a	4A
.	.	.	.	.	.	4g	4G
=3	=3	=3	=3	=3	=3	=3	=3
1r	1r	1r	1r	1r	4r	2f	2F
.	.	.	.	.	4a	.	.
.	.	.	.	.	4a	2r	2r
.	.	.	.	.	4b-	.	.
=4	=4	=4	=4	=4	=4	=4	=4
1r	1r	1r	1r	1r	4cc	2F	2f
.	.	.	.	.	4a	.	.
.	.	.	.	.	4b-	2r	2r
.	.	.	.	.	4cc	.	.
=5	=5	=5	=5	=5	=5	=5	=5
1r	1r	1r	1r	1r	1dd	4r	4r
.	.	.	.	.	.	8b-	8B-
.	.	.	.	.	.	8cc	8c
.	.	.	.	.	.	4dd	4d
.	.	.	.	.	.	4cc	4c
=6	=6	=6	=6	=6	=6	=6	=6
1r	1r	1r	1r	1r	1g	4b-	4B-
.	.	.	.	.	.	8b-	8B-
.	.	.	.	.	.	8a	8A
.	.	.	.	.	.	4g	4G
.	.	.	.	.	.	4f	4F
=7	=7	=7	=7	=7	=7	=7	=7
1r	1r	1r	1r	1r	4r	2e	2E
.	.	.	.	.	4g	.	.
.	.	.	.	.	4g	2r	2r
.	.	.	.	.	4a	.	.
=8	=8	=8	=8	=8	=8	=8	=8
1r	1r	1r	1r	1r	4b-	2E	2e
.	.	.	.	.	4g	.	.
.	.	.	.	.	4a	2r	2r
.	.	.	.	.	4b-	.	.
=9	=9	=9	=9	=9	=9	=9	=9
1r	1r	1r	1r	1r	1cc	4r	4r
.	.	.	.	.	.	8a	8A
.	.	.	.	.	.	8b-	8B-
.	.	.	.	.	.	4cc	4c
.	.	.	.	.	.	4b-	4B-
=10	=10	=10	=10	=10	=10	=10	=10
1r	1r	1r	1r	1r	1f	4a	4A
.	.	.	.	.	.	8a	8A
.	.	.	.	.	.	8g	8G
.	.	.	.	.	.	4f	4F
.	.	.	.	.	.	4e	4E
=11	=11	=11	=11	=11	=11	=11	=11
1r	1r	1r	1r	1r	4r	2d	2D
.	.	.	.	.	4f	.	.
.	.	.	.	.	4f	2r	2r
.	.	.	.	.	4g	.	.
=12	=12	=12	=12	=12	=12	=12	=12
1r	1r	1r	1r	1r	4a	2D	2d
.	.	.	.	.	4f	.	.
.	.	.	.	.	[2b-	4r	4r
.	.	.	.	.	.	4d	4D
=13	=13	=13	=13	=13	=13	=13	=13
1r	1r	1r	1r	1r	2b-]	4c	4C
.	.	.	.	.	.	4e	4E
.	.	.	.	.	2a	[2f	[2F
=14	=14	=14	=14	=14	=14	=14	=14
1r	1r	1r	1r	1r	1g	2f]	2F]
.	.	.	.	.	.	2e	2E
=15	=15	=15	=15	=15	=15	=15	=15
1r	1r	1r	1r	1ccc	4f	2f	2F
.	.	.	.	.	8f	.	.
.	.	.	.	.	8e	.	.
.	.	.	.	.	4f	2r	2r
.	.	.	.	.	4g	.	.
=16	=16	=16	=16	=16	=16	=16	=16
1r	1r	1r	1r	1ff	4a	1r	1r
.	.	.	.	.	4f	.	.
.	.	.	.	.	4a	.	.
.	.	.	.	.	4b-	.	.
=17	=17	=17	=17	=17	=17	=17	=17
1r	1r	1r	1r	4r	2cc	1r	1r
.	.	.	.	4ee	.	.	.
.	.	.	.	4ee	2r	.	.
.	.	.	.	4ff	.	.	.
=18	=18	=18	=18	=18	=18	=18	=18
1r	1r	1r	1r	4gg	2c	1r	1r
.	.	.	.	4ee	.	.	.
.	.	.	.	4ff	2r	.	.
.	.	.	.	4gg	.	.	.
=19	=19	=19	=19	=19	=19	=19	=19
1r	1r	1r	1r	1aa	4r	1r	1r
.	.	.	.	.	8f	.	.
.	.	.	.	.	8g	.	.
.	.	.	.	.	4a	.	.
.	.	.	.	.	4g	.	.
=20	=20	=20	=20	=20	=20	=20	=20
1r	1r	1r	1r	1dd	4f	1r	1r
.	.	.	.	.	8f	.	.
.	.	.	.	.	8e	.	.
.	.	.	.	.	4d	.	.
.	.	.	.	.	4c	.	.
=21	=21	=21	=21	=21	=21	=21	=21
1r	1r	1r	1r	4r	2B	1r	1r
.	.	.	.	4dd	.	.	.
.	.	.	.	4dd	2r	.	.
.	.	.	.	4ee	.	.	.
=22	=22	=22	=22	=22	=22	=22	=22
1r	1r	1r	1r	4ff	2b	1r	1r
.	.	.	.	4dd	.	.	.
.	.	.	.	4ee	2r	.	.
.	.	.	.	4ff	.	.	.
=23	=23	=23	=23	=23	=23	=23	=23
1r	1r	1r	1r	1gg	4r	1r	1r
.	.	.	.	.	8e	.	.
.	.	.	.	.	8f	.	.
.	.	.	.	.	4g	.	.
.	.	.	.	.	4f	.	.
=24	=24	=24	=24	=24	=24	=24	=24
1r	1r	1r	1r	1cc	4e	1r	1r
.	.	.	.	.	8e	.	.
.	.	.	.	.	8d	.	.
.	.	.	.	.	4c	.	.
.	.	.	.	.	4B	.	.
=25	=25	=25	=25	=25	=25	=25	=25
1r	1r	1r	1r	4r	2A	1r	1r
.	.	.	.	4cc	.	.	.
.	.	.	.	4cc	2r	.	.
.	.	.	.	4dd	.	.	.
=26	=26	=26	=26	=26	=26	=26	=26
1r	1r	1r	1r	4ee	2.a	1r	1r
.	.	.	.	4cc	.	.	.
.	.	.	.	[2ff	.	.	.
.	.	.	.	.	4d	.	.
=27	=27	=27	=27	=27	=27	=27	=27
1r	1r	1r	1r	2ff]	4g	1r	1r
.	.	.	.	.	4b	.	.
.	.	.	.	2ee	[2cc	.	.
=28	=28	=28	=28	=28	=28	=28	=28
1r	1r	1r	1r	1dd	2cc]	1r	1r
.	.	.	.	.	[2b-	.	.
=29	=29	=29	=29	=29	=29	=29	=29
2r	2r	1cc	1cc	2cc	2b-]	4r	1f
.	.	.	.	.	.	4f	.
[2ff	2a	.	.	[2ff	2a	4a	.
.	.	.	.	.	.	4b-	.
=30	=30	=30	=30	=30	=30	=30	=30
2ff]	1g	1g	1g	2ff]	1g	4cc	1c
.	.	.	.	.	.	4c	.
2ee	.	.	.	2ee	.	4c	.
.	.	.	.	.	.	4B-	.
=31	=31	=31	=31	=31	=31	=31	=31
2.ccc	4f	2e	2e	2.ccc	4f	2A	4r
.	2f	.	.	.	2f	.	4A
.	.	2r	2r	.	.	2r	4A
4bb-	4g	.	.	4bb-	4g	.	4B-
=32	=32	=32	=32	=32	=32	=32	=32
2.aa	4a	1r	1r	2.aa	4a	1r	4c
.	2cc	.	.	.	2cc	.	4A
.	.	.	.	.	.	.	4B-
4gg	4b-	.	.	4gg	4b-	.	4c
=33	=33	=33	=33	=33	=33	=33	=33
4ff	4a	1cc	1cc	4ff	4a	4r	1d
4ee	4g	.	.	4ee	4g	4d	.
4dd	4f	.	.	4dd	4f	4a	.
4cc	8e	.	.	4cc	8e	8g	.
.	8f	.	.	.	8f	8a	.
=34	=34	=34	=34	=34	=34	=34	=34
4b-	2g	2dd	2dd	4b-	2g	4b-	1G
4dd	.	.	.	4dd	.	4B-	.
8gg	2d	2r	2r	8gg	2d	8B-	.
8ff#	.	.	.	8ff#	.	8A	.
8gg	.	.	.	8gg	.	8B-	.
8aa	.	.	.	8aa	.	8c	.
=35	=35	=35	=35	=35	=35	=35	=35
2.bb-	4g	1r	1r	2.bb-	4G	4d	4r
.	2dd	.	.	.	2dd	4B-	4G
.	.	.	.	.	.	4B-	4G
4aa	4cc	.	.	4aa	4cc	4c	4A
=36	=36	=36	=36	=36	=36	=36	=36
2.gg	4b-	1r	1r	2.gg	4b-	4d	4B-
.	2b-	.	.	.	2b-	4B-	4G
.	.	.	.	.	.	4c	4A
4ff	4a	.	.	4ff	4a	4d	4B-
=37	=37	=37	=37	=37	=37	=37	=37
4ee	4g	1g	1g	4ee	4g	2e	1c
4dd	4f	.	.	4dd	4f	.	.
4cc	4e	.	.	4cc	4e	2G	.
4b-	8d	.	.	4b-	8d	.	.
.	8e	.	.	.	8e	.	.
=38	=38	=38	=38	=38	=38	=38	=38
4a	2f	1c	1c	4a	2f	4F	1F
8b-	.	.	.	8b-	.	8G	.
8cc	.	.	.	8cc	.	8A	.
8dd	2r	.	.	8dd	2r	8B-	.
8ee	.	.	.	8ee	.	8c	.
8ff	.	.	.	8ff	.	8d	.
8gg	.	.	.	8gg	.	8e	.
=39	=39	=39	=39	=39	=39	=39	=39
2.aa	4cc	4r	4r	2.aa	4cc	4f	4r
.	2cc	4cc	4cc	.	2cc	4A	4F
.	.	4cc	4cc	.	.	4A	4F
4gg	4b-	4dd	4dd	4gg	4b-	4B-	4G
=40	=40	=40	=40	=40	=40	=40	=40
4ff	2a	2ee	2ee	4ff	2a	2c	4A
4ee	.	.	.	4ee	.	.	4F
4dd	2f	2cc	2cc	4dd	2f	2B-	[2B-
4gg	.	.	.	4gg	.	.	.
=41	=41	=41	=41	=41	=41	=41	=41
2cc	4e	1g	1g	2cc	4e	2g	2B-]
.	8f	.	.	.	8f	.	.
.	8g	.	.	.	8g	.	.
[2ff	4a	.	.	[2ff	4a	2c	2A
.	4cc	.	.	.	4cc	.	.
=42	=42	=42	=42	=42	=42	=42	=42
2ff]	2.b-	1r	1r	2ff]	2.b-	2d	1G
[2ee	.	.	.	[2ee	.	2g	.
.	8cc	.	.	.	8cc	.	.
.	8b-	.	.	.	8b-	.	.
=43	=43	=43	=43	=43	=43	=43	=43
4ee]	2.a	1r	1r	4ee]	2.a	2c	2.F
4a	.	.	.	4a	.	.	.
[2dd	.	.	.	[2dd	.	4f	.
.	8b-	.	.	.	8b-	4g	4G
.	8g	.	.	.	8g	.	.
=44	=44	=44	=44	=44	=44	=44	=44
2dd]	1e	[1e	[1e	2dd]	1e	[1a	1A
2cc#	.	.	.	2cc#	.	.	.
=45	=45	=45	=45	=45	=45	=45	=45
4dd	1dd	1e_	1e_	4dd	1dd	1a]	1D
8ff	.	.	.	8ff	.	.	.
8ee	.	.	.	8ee	.	.	.
4ff	.	.	.	4ff	.	.	.
4gg	.	.	.	4gg	.	.	.
=46	=46	=46	=46	=46	=46	=46	=46
1aa	4a	1e_	1e_	1aa	4a	4c#	4r
.	2cc#	.	.	.	2cc#	2e	4A
.	.	.	.	.	.	.	4A
.	4dd	.	.	.	4dd	4d	4B
=47	=47	=47	=47	=47	=47	=47	=47
1a	4ee	1e_	1e_	1a	4ee	4c#	4c#
.	4cc#	.	.	.	4cc#	4A	2A
.	4dd	.	.	.	4dd	4B	.
.	4ee	.	.	.	4ee	4c#	4G
=48	=48	=48	=48	=48	=48	=48	=48
1ddd	1a	1e_	1e_	1ddd	1a	2d	4F
.	.	.	.	.	.	.	8F
.	.	.	.	.	.	.	8E
.	.	.	.	.	.	2r	4F
.	.	.	.	.	.	.	4A
=49	=49	=49	=49	=49	=49	=49	=49
1aa	4f	1e_	1e_	1aa	4f	1a	4d
.	8f	.	.	.	8f	.	8d
.	8g	.	.	.	8g	.	8e
.	4a	.	.	.	4a	.	4f
.	4g	.	.	.	4g	.	4e
=50	=50	=50	=50	=50	=50	=50	=50
4r	4f#	1e_	1e_	4r	4f#	1d	1d
4ff#	4a	.	.	4ff#	4a	.	.
4ff#	4a	.	.	4ff#	4a	.	.
4gg	4b-	.	.	4gg	4b-	.	.
=51	=51	=51	=51	=51	=51	=51	=51
4aa	4cc	2e]	2e]	4aa	4cc	4r	2D
4ff#	4a	.	.	4ff#	4a	4d	.
4gg	4b-	2r	2r	4gg	4b-	4d	2r
4aa	4cc	.	.	4aa	4cc	4d	.
=52	=52	=52	=52	=52	=52	=52	=52
4bb-	2d	1r	1r	4bb-	2d	2g	1G
4dd	.	.	.	4dd	.	.	.
[2gg	2r	.	.	[2gg	2r	4b-	.
.	.	.	.	.	.	4g	.
=53	=53	=53	=53	=53	=53	=53	=53
2gg]	1aa	1r	1r	2gg]	1aa	2dd	1D
4ff#	.	.	.	4ff#	.	2r	.
4aa	.	.	.	4aa	.	.	.
=54	=54	=54	=54	=54	=54	=54	=54
2dd	2dd	1r	1r	8dd	4dd	2r	4r
.	.	.	.	8ddd	.	.	.
.	.	.	.	8ddd	4f#	.	4D
.	.	.	.	8ddd	.	.	.
2r	2r	.	.	8ddd	4f#	[2a	4D
.	.	.	.	8ddd	.	.	.
.	.	.	.	8ddd	4g	.	4E
.	.	.	.	8ddd	.	.	.
=55	=55	=55	=55	=55	=55	=55	=55
1dd	1dd	1r	1r	8ddd	4a	2a]	4F#
.	.	.	.	8ddd	.	.	.
.	.	.	.	8ddd	4f#	.	4D
.	.	.	.	8ddd	.	.	.
.	.	.	.	8ddd	4g	[2d	4E
.	.	.	.	8ccc	.	.	.
.	.	.	.	8bb-	4a	.	4F#
.	.	.	.	8aa	.	.	.
=56	=56	=56	=56	=56	=56	=56	=56
2g	2g	1r	1r	4bb-	8d	2d]	4G
.	.	.	.	.	8gg	.	.
.	.	.	.	4b-	8gg	.	4G
.	.	.	.	.	8gg	.	.
2r	2r	.	.	4b-	8gg	[2dd	4G
.	.	.	.	.	8gg	.	.
.	.	.	.	4cc	8gg	.	4A
.	.	.	.	.	8gg	.	.
=57	=57	=57	=57	=57	=57	=57	=57
1gg	1gg	1r	1r	4dd	8gg	2dd]	4B-
.	.	.	.	.	8gg	.	.
.	.	.	.	4b-	8gg	.	4G
.	.	.	.	.	8gg	.	.
.	.	.	.	4cc	8gg	[2g	4A
.	.	.	.	.	8ff	.	.
.	.	.	.	4dd	8ee-	.	4B-
.	.	.	.	.	8dd	.	.
=58	=58	=58	=58	=58	=58	=58	=58
2cc	2cc	[1g	[1g	8g	4ee-	2g]	4c
.	.	.	.	8ccc	.	.	.
.	.	.	.	8ccc	4e-	.	4C
.	.	.	.	8ccc	.	.	.
2r	2r	.	.	8ccc	4e-	[2g	4C
.	.	.	.	8ccc	.	.	.
.	.	.	.	8ccc	4f	.	4D
.	.	.	.	8ccc	.	.	.
=59	=59	=59	=59	=59	=59	=59	=59
1cc	1cc	1g]	1g]	8ccc	4g	2g]	4E-
.	.	.	.	8ccc	.	.	.
.	.	.	.	8ccc	4e-	.	4C
.	.	.	.	8ccc	.	.	.
.	.	.	.	8ccc	4f	[2c	4D
.	.	.	.	8bb-	.	.	.
.	.	.	.	8aa	4g	.	4E-
.	.	.	.	8gg	.	.	.
=60	=60	=60	=60	=60	=60	=60	=60
2f	2f	1c	1c	4aa	8c	2c]	4F
.	.	.	.	.	8ff	.	.
.	.	.	.	4a	8ff	.	4F
.	.	.	.	.	8ff	.	.
2r	2r	.	.	4a	8ff	[2cc	4F
.	.	.	.	.	8ff	.	.
.	.	.	.	4b-	8ff	.	4G
.	.	.	.	.	8ff	.	.
=61	=61	=61	=61	=61	=61	=61	=61
1ff	1ff	[1cc	[1c	4cc	8ff	2cc]	4A
.	.	.	.	.	8ff	.	.
.	.	.	.	4a	8ff	.	4F
.	.	.	.	.	8ff	.	.
.	.	.	.	4b-	8ff	2f	4G
.	.	.	.	.	8ee-	.	.
.	.	.	.	4cc	8dd	.	4A
.	.	.	.	.	8cc	.	.
=62	=62	=62	=62	=62	=62	=62	=62
2b-	2b-	1cc_	1c_	2b-	4dd	[1f	1B-
.	.	.	.	.	4ff	.	.
[2bb-	2dd	.	.	2dd	[2bb-	.	.
=63	=63	=63	=63	=63	=63	=63	=63
2bb-]	1cc	1cc]	1c]	2cc	4bb-]	2f]	1F
.	.	.	.	.	8aa	.	.
.	.	.	.	.	8gg	.	.
2aa	.	.	.	2r	4ff	2A	.
.	.	.	.	.	4ee-	.	.
=64	=64	=64	=64	=64	=64	=64	=64
1r	1r	1r	1r	1bb-	4dd	4B-	2r
.	.	.	.	.	4B-	8d	.
.	.	.	.	.	.	8c	.
.	.	.	.	.	[2f	4d	[2d
.	.	.	.	.	.	4f	.
=65	=65	=65	=65	=65	=65	=65	=65
1ff	1ff	1r	1r	1ff	4f]	2b-	4d]
.	.	.	.	.	4e-	.	4c
.	.	.	.	.	4d	2r	4B-
.	.	.	.	.	4c	.	4A
=66	=66	=66	=66	=66	=66	=66	=66
4b-	4b-	1r	1r	4r	4d	1b-	2B-
4dd	4b-	.	.	4dd	4b-	.	.
4dd	4b-	.	.	4dd	4b-	.	2r
4ee-	4cc	.	.	4ee-	4cc	.	.
=67	=67	=67	=67	=67	=67	=67	=67
4ff	4dd	1r	1r	4ff	4dd	2B-	2BB-
4dd	4b-	.	.	4dd	4b-	.	.
4ee-	4cc	.	.	4ee-	4cc	2r	2r
4ff	4dd	.	.	4ff	4dd	.	.
=68	=68	=68	=68	=68	=68	=68	=68
1gg	1ee-	1r	1r	1gg	2ee-	4r	2r
.	.	.	.	.	.	8e-	.
.	.	.	.	.	.	8d	.
.	.	.	.	.	[2g	4e-	[2e-
.	.	.	.	.	.	4g	.
=69	=69	=69	=69	=69	=69	=69	=69
1cc	1cc	1r	1r	1cc	4g]	2cc	4e-]
.	.	.	.	.	4f	.	4d
.	.	.	.	.	4e-	2r	4c
.	.	.	.	.	4d	.	4B-
=70	=70	=70	=70	=70	=70	=70	=70
4r	4r	1r	1r	4r	4c	1a	2A
4cc	4a	.	.	4cc	4a	.	.
4cc	4a	.	.	4cc	4a	.	2r
4dd	4b-	.	.	4dd	4b-	.	.
=71	=71	=71	=71	=71	=71	=71	=71
4ee-	4cc	1r	1r	4ee-	4cc	2A	2AA
4cc	4a	.	.	4cc	4a	.	.
4dd	4b-	.	.	4dd	4b-	2r	2r
4ee-	4cc	.	.	4ee-	4cc	.	.
=72	=72	=72	=72	=72	=72	=72	=72
1ff	1dd	1r	1r	1ff	2dd	4r	2r
.	.	.	.	.	.	8d	.
.	.	.	.	.	.	8c	.
.	.	.	.	.	[2f	4d	[2d
.	.	.	.	.	.	4f	.
=73	=73	=73	=73	=73	=73	=73	=73
1b-	1b-	1r	1r	1b-	4f]	2b-	4d]
.	.	.	.	.	4e-	.	4c
.	.	.	.	.	4d	2r	4B-
.	.	.	.	.	4c	.	4A
=74	=74	=74	=74	=74	=74	=74	=74
4r	4r	1r	1r	4r	2.B-	2.G	2.G
4b-	4b-	.	.	4b-	.	.	.
[2ee-	[2ee-	.	.	[2ee-	.	.	.
.	.	.	.	.	4B-	4G	4G
=75	=75	=75	=75	=75	=75	=75	=75
4ee-]	4ee-]	1r	1r	4ee-]	2.c	2.A	2.A
4cc	4cc	.	.	4cc	.	.	.
[2ff	[2ff	.	.	[2ff	.	.	.
.	.	.	.	.	4A	4F	4F
=76	=76	=76	=76	=76	=76	=76	=76
4ff]	4ff]	1r	1r	4ff]	2.d	2.B-	2.B-
4dd	4dd	.	.	4dd	.	.	.
8bb-	8bb-	.	.	8bb-	.	.	.
8aa	8aa	.	.	8aa	.	.	.
8gg	8gg	.	.	8gg	4dd	4B	4B
8ff	8ff	.	.	8ff	.	.	.
=77	=77	=77	=77	=77	=77	=77	=77
2ee	2ee	[1g	[1g	2ee	4cc	2c	2.c
.	.	.	.	.	4g	.	.
[2ccc	2ee	.	.	[2ccc	4e	2r	.
.	.	.	.	.	8d	.	4B-
.	.	.	.	.	8e	.	.
=78	=78	=78	=78	=78	=78	=78	=78
4ccc]	2ff	1g_	1g_	4ccc]	2f	2.cc	2.A
4bb-	.	.	.	4bb-	.	.	.
[2aa	[2cc	.	.	[2aa	[2cc	.	.
.	.	.	.	.	.	4b-	4G
=79	=79	=79	=79	=79	=79	=79	=79
4aa]	4cc]	2g]	2g]	4aa]	4cc]	2.a	2.F
4gg	4b-	.	.	4gg	4b-	.	.
[2ff	[2a	2r	2r	[2ff	[2a	.	.
.	.	.	.	.	.	4g	4E
=80	=80	=80	=80	=80	=80	=80	=80
4ff]	4a]	1r	1r	4ff]	4a]	2.f	2.D
4ee	4g	.	.	4ee	4g	.	.
[2dd	[2f	.	.	[2dd	[2f	.	.
.	.	.	.	.	.	4d	4BB-
=81	=81	=81	=81	=81	=81	=81	=81
4dd]	4f]	1r	1r	4dd]	4f]	2.dd	2.B-
4b-	4d	.	.	4b-	4d	.	.
[2bb-	[2dd	.	.	[2bb-	[2dd	.	.
.	.	.	.	.	.	4cc	4A
=82	=82	=82	=82	=82	=82	=82	=82
4bb-]	4dd]	1r	1r	4bb-]	4dd]	2.b-	2.G
4aa	4cc	.	.	4aa	4cc	.	.
[2gg	[2b-	.	.	[2gg	[2b-	.	.
.	.	.	.	.	.	4a	4F
=83	=83	=83	=83	=83	=83	=83	=83
4gg]	4b-]	1r	1r	4gg]	4b-]	2.g	2.E
4ff	4a	.	.	4ff	4a	.	.
[2ee	[2g	.	.	[2ee	[2g	.	.
.	.	.	.	.	.	4f	4D
=84	=84	=84	=84	=84	=84	=84	=84
4ee]	4g]	1g	1g	4ee]	4g]	1e	1C
4ff	8a	.	.	4ff	8a	.	.
.	8b-	.	.	.	8b-	.	.
[2gg	4cc	.	.	[2gg	4cc	.	.
.	4b-	.	.	.	4b-	.	.
=85	=85	=85	=85	=85	=85	=85	=85
4gg]	2a	1c	1c	4gg]	2.a	1c	1FF
8ff	.	.	.	8ff	.	.	.
8ee	.	.	.	8ee	.	.	.
2ff	2r	.	.	4ff	.	.	.
.	.	.	.	4aa	4f	.	.
=86	=86	=86	=86	=86	=86	=86	=86
1r	1r	1r	1r	4b-	4g	1r	1r
.	.	.	.	4gg	4e	.	.
.	.	.	.	4a	4f	.	.
.	.	.	.	4ff	4d	.	.
=87	=87	=87	=87	=87	=87	=87	=87
1r	1r	1r	1r	4g	4e	1r	1r
.	.	.	.	4ee	4c#	.	.
.	.	.	.	4f	4d	.	.
.	.	.	.	[4dd	4f	.	.
=88	=88	=88	=88	=88	=88	=88	=88
1r	1r	1ee	1e	4dd]	2.e	[1A	1A
.	.	.	.	8cc#	.	.	.
.	.	.	.	8b	.	.	.
.	.	.	.	4cc#	.	.	.
.	.	.	.	[4ee	4g	.	.
=89	=89	=89	=89	=89	=89	=89	=89
1r	1r	2cc	2c	4ee]	2.f	2A]	1D
.	.	.	.	4a	.	.	.
.	.	2r	2r	4dd	.	2r	.
.	.	.	.	[4ff	4a	.	.
=90	=90	=90	=90	=90	=90	=90	=90
1c	1c	1gg	1g	4ff]	2.g	1c	1r
.	.	.	.	8ee	.	.	.
.	.	.	.	8dd	.	.	.
.	.	.	.	4ee	.	.	.
.	.	.	.	[4gg	4b-	.	.
=91	=91	=91	=91	=91	=91	=91	=91
1f	1f	1cc	1c	4gg]	2.a	1F	1r
.	.	.	.	4cc	.	.	.
.	.	.	.	4ff	.	.	.
.	.	.	.	[4aa	4cc	.	.
=92	=92	=92	=92	=92	=92	=92	=92
1r	1r	1r	1r	4aa]	2.b	2r	1e
.	.	.	.	8gg#	.	.	.
.	.	.	.	8ff#	.	.	.
.	.	.	.	4gg#	.	[2e	.
.	.	.	.	[4bb	4dd	.	.
=93	=93	=93	=93	=93	=93	=93	=93
1r	1r	1r	1r	4bb]	2.cc	2e]	1A
.	.	.	.	4ee	.	.	.
.	.	.	.	4aa	.	2c	.
.	.	.	.	[4ccc	4ee	.	.
=94	=94	=94	=94	=94	=94	=94	=94
1g	1g	1dd	1dd	4ccc]	2.dd	1g	1r
.	.	.	.	8bb	.	.	.
.	.	.	.	8aa	.	.	.
.	.	.	.	4bb	.	.	.
.	.	.	.	[4ddd	4ff	.	.
=95	=95	=95	=95	=95	=95	=95	=95
1c	1c	1g	1g	4ddd]	2.ee	1c	1r
.	.	.	.	4gg	.	.	.
.	.	.	.	4ccc	.	.	.
.	.	.	.	4bb-	4ee	.	.
=96	=96	=96	=96	=96	=96	=96	=96
2r	2r	[1cc	[1c	4aa	4ff	2r	1F
.	.	.	.	8bb-	8gg	.	.
.	.	.	.	16aa	16ff	.	.
.	.	.	.	16bb-	16gg	.	.
[2ccc	2ee-	.	.	4ccc	4aa	[2f	.
.	.	.	.	4ee-	4cc	.	.
=97	=97	=97	=97	=97	=97	=97	=97
4ccc]	1dd	2cc]	2c]	4dd	4b-	2f]	1BB-
4ff	.	.	.	8bb-	8dd	.	.
.	.	.	.	8aa	8cc	.	.
[2bb-	.	2r	2r	4bb-	4dd	2f	.
.	.	.	.	4dd	4b-	.	.
=98	=98	=98	=98	=98	=98	=98	=98
4bb-]	1cc	1r	1r	4cc	4a	1d	1r
8aa	.	.	.	8ff#	8a	.	.
8gg	.	.	.	8gg	8b-	.	.
[2aa	.	.	.	4aa	4cc	.	.
.	.	.	.	4cc	4f#	.	.
=99	=99	=99	=99	=99	=99	=99	=99
4aa]	1b-	1r	1r	4b-	2g	1G	1r
4dd	.	.	.	4dd	.	.	.
2gg	.	.	.	4gg	4b-	.	.
.	.	.	.	4b-	4g	.	.
=100	=100	=100	=100	=100	=100	=100	=100
2ff#	2a	1r	1r	8a	2.f#	1r	1d
.	.	.	.	8d	.	.	.
.	.	.	.	8e	.	.	.
.	.	.	.	8f#	.	.	.
2r	2r	.	.	8g	.	.	.
.	.	.	.	8a	.	.	.
.	.	.	.	8b-	8g	.	.
.	.	.	.	8cc	8a	.	.
=101	=101	=101	=101	=101	=101	=101	=101
1r	1r	1r	1r	1dd	1b-	4r	4G
.	.	.	.	.	.	4G	4GG
.	.	.	.	.	.	4B-	4BB-
.	.	.	.	.	.	4d	4D
=102	=102	=102	=102	=102	=102	=102	=102
1r	1r	1r	1r	1g	4B-	4g	4G
.	.	.	.	.	8B-	8g	8G
.	.	.	.	.	8c	8a	8A
.	.	.	.	.	4d	4b-	4B-
.	.	.	.	.	4c	4a	4A
=103	=103	=103	=103	=103	=103	=103	=103
1r	1r	1r	1r	4r	4B-	2g	2G
.	.	.	.	4b-	4g	.	.
.	.	.	.	4b-	4g	2r	2r
.	.	.	.	4cc	4a	.	.
=104	=104	=104	=104	=104	=104	=104	=104
1r	1r	1r	1r	4dd	4b-	2G	2GG
.	.	.	.	4b-	4g	.	.
.	.	.	.	4cc	4a	2r	2r
.	.	.	.	4dd	4b-	.	.
=105	=105	=105	=105	=105	=105	=105	=105
1r	1r	1r	1r	1ee-	1cc	4r	4r
.	.	.	.	.	.	4A	4AA
.	.	.	.	.	.	4c	4C
.	.	.	.	.	.	4e-	4E-
=106	=106	=106	=106	=106	=106	=106	=106
1r	1r	1r	1r	1a	4c	4a	4A
.	.	.	.	.	8c	8a	8A
.	.	.	.	.	8d	8b-	8B-
.	.	.	.	.	4e-	4cc	4c
.	.	.	.	.	4d	4b-	4B-
=107	=107	=107	=107	=107	=107	=107	=107
1r	1r	1r	1r	4r	4c	2a	2A
.	.	.	.	4cc	4A	.	.
.	.	.	.	4cc	4A	2r	2r
.	.	.	.	4dd	4B-	.	.
=108	=108	=108	=108	=108	=108	=108	=108
1r	1r	1r	1r	4ee-	4c	2A	2AA
.	.	.	.	4cc	4A	.	.
.	.	.	.	4dd	4B-	2r	2r
.	.	.	.	4ee-	4c	.	.
=109	=109	=109	=109	=109	=109	=109	=109
[1ff	[1dd	[1cc	[1cc	1ff	8B-	1r	4r
.	.	.	.	.	8d	.	.
.	.	.	.	.	8B-	.	4BB-
.	.	.	.	.	8d	.	.
.	.	.	.	.	8B-	.	4D
.	.	.	.	.	8d	.	.
.	.	.	.	.	8B-	.	4F
.	.	.	.	.	8d	.	.
=110	=110	=110	=110	=110	=110	=110	=110
1ff_	1dd]	1cc_	1cc_	1a-	8B-	1f	4r
.	.	.	.	.	8d	.	.
.	.	.	.	.	8B-	.	4BB-
.	.	.	.	.	8d	.	.
.	.	.	.	.	8B-	.	4D
.	.	.	.	.	8d	.	.
.	.	.	.	.	8B-	.	4F
.	.	.	.	.	8d	.	.
=111	=111	=111	=111	=111	=111	=111	=111
1ff_	[1b	1cc_	1cc_	1ff	8B	1G	4r
.	.	.	.	.	8d	.	.
.	.	.	.	.	8B	.	4BB
.	.	.	.	.	8d	.	.
.	.	.	.	.	8B	.	4D
.	.	.	.	.	8d	.	.
.	.	.	.	.	8B	.	4G
.	.	.	.	.	8d	.	.
=112	=112	=112	=112	=112	=112	=112	=112
1ff]	1b]	1cc]	1cc]	1B	8B	1F	4r
.	.	.	.	.	8d	.	.
.	.	.	.	.	8B	.	4G
.	.	.	.	.	8d	.	.
.	.	.	.	.	8B	.	4B
.	.	.	.	.	8d	.	.
.	.	.	.	.	8B	.	4d
.	.	.	.	.	8d	.	.
=113	=113	=113	=113	=113	=113	=113	=113
[1ee-	[1cc	[1dd	[1g	1gg	8G	2E-	4r
.	.	.	.	.	8e-	.	.
.	.	.	.	.	8G	.	4C
.	.	.	.	.	8e-	.	.
.	.	.	.	.	8G	2r	4E-
.	.	.	.	.	8e-	.	.
.	.	.	.	.	8G	.	4G
.	.	.	.	.	8e-	.	.
=114	=114	=114	=114	=114	=114	=114	=114
1ee-]	1cc]	1dd]	1g]	1ee-	8G	1c	4r
.	.	.	.	.	8e-	.	.
.	.	.	.	.	8G	.	4C
.	.	.	.	.	8e-	.	.
.	.	.	.	.	8G	.	4E-
.	.	.	.	.	8e-	.	.
.	.	.	.	.	8G	.	4G
.	.	.	.	.	8e-	.	.
=115	=115	=115	=115	=115	=115	=115	=115
[1ee	1a	[1ee	[1e	1gg	8A	1c#	4r
.	.	.	.	.	8e	.	.
.	.	.	.	.	8A	.	4C#
.	.	.	.	.	8e	.	.
.	.	.	.	.	8A	.	4E
.	.	.	.	.	8e	.	.
.	.	.	.	.	8A	.	4A
.	.	.	.	.	8e	.	.
=116	=116	=116	=116	=116	=116	=116	=116
1ee]	1cc#	1ee_	1e]	1c#	8A	1a	4r
.	.	.	.	.	8e	.	.
.	.	.	.	.	8A	.	4A
.	.	.	.	.	8e	.	.
.	.	.	.	.	8A	.	4c#
.	.	.	.	.	8e	.	.
.	.	.	.	.	8A	.	4e
.	.	.	.	.	8e	.	.
=117	=117	=117	=117	=117	=117	=117	=117
[1ff	[1dd	1ee_	[1cc	1aa	8A	[1d	4r
.	.	.	.	.	8f	.	.
.	.	.	.	.	8A	.	4D
.	.	.	.	.	8f	.	.
.	.	.	.	.	8A	.	4F
.	.	.	.	.	8f	.	.
.	.	.	.	.	8A	.	4A
.	.	.	.	.	8f	.	.
=118	=118	=118	=118	=118	=118	=118	=118
1ff_	1dd]	1ee]	1cc]	1ff	8A	1d_	4r
.	.	.	.	.	8f	.	.
.	.	.	.	.	8A	.	4D
.	.	.	.	.	8f	.	.
.	.	.	.	.	8A	.	4F
.	.	.	.	.	8f	.	.
.	.	.	.	.	8A	.	4A
.	.	.	.	.	8f	.	.
=119	=119	=119	=119	=119	=119	=119	=119
1ff_	[1b-	[1cc	[1c	1bb-	8B-	1d_	4r
.	.	.	.	.	8f	.	.
.	.	.	.	.	8B-	.	4D
.	.	.	.	.	8f	.	.
.	.	.	.	.	8B-	.	4F
.	.	.	.	.	8f	.	.
.	.	.	.	.	8B-	.	4B-
.	.	.	.	.	8f	.	.
=120	=120	=120	=120	=120	=120	=120	=120
1ff]	1b-]	1cc]	1c]	1ff	8B-	1d]	4r
.	.	.	.	.	8f	.	.
.	.	.	.	.	8B-	.	4D
.	.	.	.	.	8f	.	.
.	.	.	.	.	8B-	.	4F
.	.	.	.	.	8f	.	.
.	.	.	.	.	8B-	.	4B-
.	.	.	.	.	8f	.	.
=121	=121	=121	=121	=121	=121	=121	=121
[1ff	[1b-	[1cc	[1c	1dd	8B-	[1d	4r
.	.	.	.	.	8f	.	.
.	.	.	.	.	8B-	.	4D
.	.	.	.	.	8f	.	.
.	.	.	.	.	8B-	.	4F
.	.	.	.	.	8f	.	.
.	.	.	.	.	8B-	.	4B-
.	.	.	.	.	8f	.	.
=122	=122	=122	=122	=122	=122	=122	=122
1ff]	1b-_	1cc]	1c]	[1b-	8B-	1d]	4r
.	.	.	.	.	8f	.	.
.	.	.	.	.	8B-	.	4D
.	.	.	.	.	8f	.	.
.	.	.	.	.	8B-	.	4F
.	.	.	.	.	8f	.	.
.	.	.	.	.	8B-	.	4B-
.	.	.	.	.	8f	.	.
=123	=123	=123	=123	=123	=123	=123	=123
[1ee	1b-_	2g	2g	4b-]	8G	1c	2C
.	.	.	.	.	8e	.	.
.	.	.	.	4bb-	8G	.	.
.	.	.	.	.	8e	.	.
.	.	2r	2r	4bb-	8G	.	2r
.	.	.	.	.	8e	.	.
.	.	.	.	4bb-	8G	.	.
.	.	.	.	.	8e	.	.
=124	=124	=124	=124	=124	=124	=124	=124
2ee]	2b-]	1g	1g	8bb-	4e 4G	1e	1c
.	.	.	.	8aa	.	.	.
.	.	.	.	8gg	2.r	.	.
.	.	.	.	8ff	.	.	.
2r	2r	.	.	8ee	.	.	.
.	.	.	.	8dd	.	.	.
.	.	.	.	8cc	.	.	.
.	.	.	.	8b-	.	.	.
=125	=125	=125	=125	=125	=125	=125	=125
1aa	1aa	1c	1c	4a	1cc	2f	1F
.	.	.	.	4a	.	.	.
.	.	.	.	8aa	.	2r	.
.	.	.	.	8gg	.	.	.
.	.	.	.	8ff	.	.	.
.	.	.	.	8ee	.	.	.
=126	=126	=126	=126	=126	=126	=126	=126
1dd	1dd	1r	1r	4ff	1f	2.A	1d
.	.	.	.	4ff	.	.	.
.	.	.	.	4gg	.	.	.
.	.	.	.	4aa	.	8f	.
.	.	.	.	.	.	8e	.
=127	=127	=127	=127	=127	=127	=127	=127
1bb-	1bb-	1r	1r	4bb-	1dd	2.d	1G
.	.	.	.	4b-	.	.	.
.	.	.	.	8bb-	.	.	.
.	.	.	.	8aa	.	.	.
.	.	.	.	8gg	.	4B-	.
.	.	.	.	8ff	.	.	.
=128	=128	=128	=128	=128	=128	=128	=128
1ee	1ee	1r	1r	4gg	1g	2.B-	1e
.	.	.	.	4gg	.	.	.
.	.	.	.	4aa	.	.	.
.	.	.	.	4bb-	.	8g	.
.	.	.	.	.	.	8f	.
=129	=129	=129	=129	=129	=129	=129	=129
1ccc	1ccc	1r	1r	4ccc	1ee	2.e	1A
.	.	.	.	4cc	.	.	.
.	.	.	.	8ccc	.	.	.
.	.	.	.	8bb-	.	.	.
.	.	.	.	8aa	.	4c	.
.	.	.	.	8gg	.	.	.
=130	=130	=130	=130	=130	=130	=130	=130
1ff	1ff	1r	1r	4aa	1a	2.c	1f
.	.	.	.	4aa	.	.	.
.	.	.	.	4bb-	.	.	.
.	.	.	.	4ccc	.	8a	.
.	.	.	.	.	.	8g	.
=131	=131	=131	=131	=131	=131	=131	=131
2ddd	2ddd	1cc	1cc	4ddd	2ff	2f	1B-
.	.	.	.	4dd	.	.	.
2ff	2ff	.	.	4ddd	4b-	2b-	.
.	.	.	.	4ff	4a	.	.
=132	=132	=132	=132	=132	=132	=132	=132
2ee	2ee	1g	1g	8ee	2g	2cc	2c
.	.	.	.	8cc	.	.	.
.	.	.	.	8dd	.	.	.
.	.	.	.	8ee	.	.	.
2r	2r	.	.	8ff	2r	2r	2r
.	.	.	.	8gg	.	.	.
.	.	.	.	8aa	.	.	.
.	.	.	.	8bb-	.	.	.
=133	=133	=133	=133	=133	=133	=133	=133
1ccc	1r	1r	1r	1ccc	1r	1r	1r
=134	=134	=134	=134	=134	=134	=134	=134
1ff	1ff	1r	1r	1ff	1ff	1r	1r
=135	=135	=135	=135	=135	=135	=135	=135
4r	1cc	1r	1r	4r	1cc	2r	2r
4ee	.	.	.	4ee	.	.	.
4ee	.	.	.	4ee	.	4c	4C
4ff	.	.	.	4ff	.	4d	4D
=136	=136	=136	=136	=136	=136	=136	=136
4gg	2r	1r	1r	4gg	2r	2e	2E
4ee	.	.	.	4ee	.	.	.
4ff	4a	.	.	4ff	4a	2r	2r
4gg	4b-	.	.	4gg	4b-	.	.
=137	=137	=137	=137	=137	=137	=137	=137
1aa	4cc	1r	1r	1aa	4cc	4r	4r
.	4a	.	.	.	4a	4f	4F
.	4b-	.	.	.	4b-	4g	4G
.	4cc	.	.	.	4cc	4a	4A
=138	=138	=138	=138	=138	=138	=138	=138
1dd	1dd	1r	1r	1dd	1dd	4b-	4B-
.	.	.	.	.	.	8dd	8d
.	.	.	.	.	.	8cc	8c
.	.	.	.	.	.	4b-	4B-
.	.	.	.	.	.	4a	4A
=139	=139	=139	=139	=139	=139	=139	=139
4r	1g	1r	1r	4r	1g	2b-	2B-
4dd	.	.	.	4dd	.	.	.
4dd	.	.	.	4dd	.	2r	2r
4ee	.	.	.	4ee	.	.	.
=140	=140	=140	=140	=140	=140	=140	=140
4ff	2r	1r	1r	4ff	2r	1r	1r
4dd	.	.	.	4dd	.	.	.
4ee	4g	.	.	4ee	4g	.	.
4ff	4a	.	.	4ff	4a	.	.
=141	=141	=141	=141	=141	=141	=141	=141
1gg	4b-	1r	1r	1gg	4b-	4r	4r
.	4g	.	.	.	4g	4e	4E
.	4a	.	.	.	4a	4f	4F
.	4b-	.	.	.	4b-	4g	4G
=142	=142	=142	=142	=142	=142	=142	=142
1cc	1cc	1r	1r	1cc	1cc	4a	4A
.	.	.	.	.	.	8cc	8c
.	.	.	.	.	.	8b-	8B-
.	.	.	.	.	.	4a	4A
.	.	.	.	.	.	4g	4G
=143	=143	=143	=143	=143	=143	=143	=143
4r	1f	1r	1r	4r	1f	2a	2A
4cc	.	.	.	4cc	.	.	.
4cc	.	.	.	4cc	.	2r	2r
4dd	.	.	.	4dd	.	.	.
=144	=144	=144	=144	=144	=144	=144	=144
4ee	2r	1r	1r	4ee	2r	2r	2r
4cc	.	.	.	4cc	.	.	.
[2ff	4f	.	.	[2ff	4f	2a	2A
.	4cc	.	.	.	4cc	.	.
=145	=145	=145	=145	=145	=145	=145	=145
4ff]	2b-	1r	1r	4ff]	2b-	2g	2G
2ee	.	.	.	2ee	.	.	.
.	2a	.	.	.	2a	2f	2F
[4dd	.	.	.	[4dd	.	.	.
=146	=146	=146	=146	=146	=146	=146	=146
4dd]	2g	2r	2r	4dd]	2g	2e	2E
4cc	.	.	.	4cc	.	.	.
4gg	2e	2dd	2g	4gg	2e	2c	2C
4b-	.	.	.	4b-	.	.	.
=147	=147	=147	=147	=147	=147	=147	=147
2a	2f	[1cc	[1cc	4a	8f	2f	4F
.	.	.	.	.	8ff	.	.
.	.	.	.	4a	8ff	.	4F
.	.	.	.	.	8ff	.	.
2r	2r	.	.	4a	8ff	[2cc	4F
.	.	.	.	.	8ff	.	.
.	.	.	.	4b-	8ff	.	4G
.	.	.	.	.	8ff	.	.
=148	=148	=148	=148	=148	=148	=148	=148
1ff	1ff	1cc_	1cc_	4cc	8ff	2cc]	4A
.	.	.	.	.	8ff	.	.
.	.	.	.	4a	8ff	.	4F
.	.	.	.	.	8ff	.	.
.	.	.	.	4b-	8ff	[2f	4G
.	.	.	.	.	8ee	.	.
.	.	.	.	4cc	8dd	.	4A
.	.	.	.	.	8cc	.	.
=149	=149	=149	=149	=149	=149	=149	=149
2b-	2b-	2cc]	2cc]	8dd	4dd	2f]	4B-
.	.	.	.	8ddd	.	.	.
.	.	.	.	8ddd	4d	.	4B-
.	.	.	.	8ddd	.	.	.
2r	2r	2r	2r	8ddd	4d	[2f	4B-
.	.	.	.	8ddd	.	.	.
.	.	.	.	8ddd	4e	.	4c
.	.	.	.	8ddd	.	.	.
=150	=150	=150	=150	=150	=150	=150	=150
1ddd	1ddd	1r	1r	8ddd	4f	2f]	4d
.	.	.	.	8ddd	.	.	.
.	.	.	.	8ddd	4d	.	4B-
.	.	.	.	8ddd	.	.	.
.	.	.	.	8ddd	4e	[2B-	4c
.	.	.	.	8ccc	.	.	.
.	.	.	.	8bb-	4f	.	4d
.	.	.	.	8aa	.	.	.
=151	=151	=151	=151	=151	=151	=151	=151
2gg	2gg	1r	1r	4gg	8g	2B-]	4e
.	.	.	.	.	8gg	.	.
.	.	.	.	4g	8gg	.	4E
.	.	.	.	.	8gg	.	.
2r	2r	.	.	4g	8gg	[2b-	4E
.	.	.	.	.	8gg	.	.
.	.	.	.	4a	8gg	.	4F
.	.	.	.	.	8gg	.	.
=152	=152	=152	=152	=152	=152	=152	=152
1gg	1gg	1r	1r	4b-	8gg	2b-]	4G
.	.	.	.	.	8gg	.	.
.	.	.	.	4g	8gg	.	4E
.	.	.	.	.	8gg	.	.
.	.	.	.	4a	8gg	[2e	4F
.	.	.	.	.	8ff	.	.
.	.	.	.	4b-	8ee	.	4G
.	.	.	.	.	8dd	.	.
=153	=153	=153	=153	=153	=153	=153	=153
2cc	2cc	[1g	[1g	8cc	4cc	2e]	4A
.	.	.	.	8ccc	.	.	.
.	.	.	.	8ccc	4c	.	4A
.	.	.	.	8ccc	.	.	.
2r	2r	.	.	8ccc	4c	[2ee	4A
.	.	.	.	8ccc	.	.	.
.	.	.	.	8ccc	4d	.	4B-
.	.	.	.	8ccc	.	.	.
=154	=154	=154	=154	=154	=154	=154	=154
1ccc	1ccc	1g]	1g]	8ccc	4e	2ee]	4c
.	.	.	.	8ccc	.	.	.
.	.	.	.	8ccc	4c	.	4A
.	.	.	.	8ccc	.	.	.
.	.	.	.	8ccc	4d	[2a	4B-
.	.	.	.	8bb-	.	.	.
.	.	.	.	8aa	4e	.	4c
.	.	.	.	8gg	.	.	.
=155	=155	=155	=155	=155	=155	=155	=155
2ff	2ff	2cc	2cc	4ff	8f	2a]	4d
.	.	.	.	.	8ff	.	.
.	.	.	.	4f	8ff	.	4D
.	.	.	.	.	8ff	.	.
2r	2r	2r	2r	4f	8ff	[2a	4D
.	.	.	.	.	8ff	.	.
.	.	.	.	4g	8ff	.	4E
.	.	.	.	.	8ff	.	.
=156	=156	=156	=156	=156	=156	=156	=156
1ff	1ff	1r	1r	4a	8ff	2a]	4F
.	.	.	.	.	8ff	.	.
.	.	.	.	4f	8ff	.	4D
.	.	.	.	.	8ff	.	.
.	.	.	.	4g	8ff	[2d	4E
.	.	.	.	.	8ee	.	.
.	.	.	.	4a	8dd	.	4F
.	.	.	.	.	8cc	.	.
=157	=157	=157	=157	=157	=157	=157	=157
2b-	2b-	1r	1r	8b-	4b-	2d]	4G
.	.	.	.	8bb-	.	.	.
.	.	.	.	8bb-	4B-	.	4G
.	.	.	.	8bb-	.	.	.
2r	2r	.	.	8bb-	4B-	[2dd	4G
.	.	.	.	8bb-	.	.	.
.	.	.	.	8bb-	4c	.	4A
.	.	.	.	8bb-	.	.	.
=158	=158	=158	=158	=158	=158	=158	=158
1bb-	1bb-	1r	1r	8bb-	4d	2dd]	4B-
.	.	.	.	8bb-	.	.	.
.	.	.	.	8bb-	4B-	.	4G
.	.	.	.	8bb-	.	.	.
.	.	.	.	8bb-	4c	[2g	4A
.	.	.	.	8aa	.	.	.
.	.	.	.	8gg	4d	.	4B-
.	.	.	.	8ff	.	.	.
=159	=159	=159	=159	=159	=159	=159	=159
2ee	2ee	[1g	[1g	4ee	8e	2g]	4c
.	.	.	.	.	8gg	.	.
.	.	.	.	4e	8gg	.	4C
.	.	.	.	.	8gg	.	.
2r	2r	.	.	4e	8gg	[2g	4C
.	.	.	.	.	8gg	.	.
.	.	.	.	4f	8gg	.	4D
.	.	.	.	.	8gg	.	.
=160	=160	=160	=160	=160	=160	=160	=160
2gg	2gg	1g]	1g]	2g	8gg	2g]	4E
.	.	.	.	.	8ff	.	.
.	.	.	.	.	8ee	.	4C
.	.	.	.	.	8dd	.	.
2b-	2b-	.	.	2r	8cc	[2c	4D
.	.	.	.	.	8b-	.	.
.	.	.	.	.	8a	.	4E
.	.	.	.	.	8g	.	.
=161	=161	=161	=161	=161	=161	=161	=161
2a	2a	2c	2c	1ff	2a	2c]	4F
.	.	.	.	.	.	.	4FF
2r	2r	2r	2r	.	2r	2r	4AA
.	.	.	.	.	.	.	4C
=162	=162	=162	=162	=162	=162	=162	=162
1r	1r	1r	1r	1cc	4A	4f	4F
.	.	.	.	.	8A	8f	8F
.	.	.	.	.	8B-	8g	8G
.	.	.	.	.	4c	4a	4A
.	.	.	.	.	4B-	4g	4G
=163	=163	=163	=163	=163	=163	=163	=163
1r	1r	1r	1r	4r	4A	2f	2F
.	.	.	.	4a	4f	.	.
.	.	.	.	4a	4f	2r	2r
.	.	.	.	4b-	4g	.	.
=164	=164	=164	=164	=164	=164	=164	=164
1r	1r	1r	1r	4cc	4a	1r	1r
.	.	.	.	4a	4f	.	.
.	.	.	.	4b-	4g	.	.
.	.	.	.	4cc	4a	.	.
=165	=165	=165	=165	=165	=165	=165	=165
1r	1r	1r	1r	1dd	1b-	4b-	4B-
.	.	.	.	.	.	4b-	4B-
.	.	.	.	.	.	4b-	4B-
.	.	.	.	.	.	4b-	4B-
=166	=166	=166	=166	=166	=166	=166	=166
1r	1r	1r	1r	2.g	2.d	4b-	4B-
.	.	.	.	.	.	4b-	4B-
.	.	.	.	.	.	4b-	4B-
.	.	.	.	4b-	4g	4b-	4B-
=167	=167	=167	=167	=167	=167	=167	=167
1r	1r	1r	1r	2.a	1f	4cc	4c
.	.	.	.	.	.	4cc	4c
.	.	.	.	.	.	4cc	4c
.	.	.	.	8b-	.	4cc	4c
.	.	.	.	8cc	.	.	.
=168	=168	=168	=168	=168	=168	=168	=168
1r	1r	1r	1r	2f	2A	4cc	4c
.	.	.	.	.	.	4cc	4c
.	.	.	.	2e	2G	4cc	4c
.	.	.	.	.	.	4cc	4c
=169	=169	=169	=169	=169	=169	=169	=169
[1ff	[1cc	[1cc	[1e	8f	4f	4a	4A
.	.	.	.	8ccc	.	.	.
.	.	.	.	8ccc	4f	4a	4A
.	.	.	.	8ccc	.	.	.
.	.	.	.	8ccc	4f	4a	4A
.	.	.	.	8ccc	.	.	.
.	.	.	.	8ccc	4f	4a	4A
.	.	.	.	8ccc	.	.	.
=170	=170	=170	=170	=170	=170	=170	=170
1ff_	1cc]	1cc_	1e]	8ccc	4f	4A	4AA
.	.	.	.	8bb-	.	.	.
.	.	.	.	8aa	4f	4A	4AA
.	.	.	.	8gg	.	.	.
.	.	.	.	8ff	4f	4A	4AA
.	.	.	.	8ee-	.	.	.
.	.	.	.	8dd	4f	4A	4AA
.	.	.	.	8cc	.	.	.
=171	=171	=171	=171	=171	=171	=171	=171
1ff_	[1dd	1cc_	[1c	8dd	4f	4B-	4BB-
.	.	.	.	8ddd	.	.	.
.	.	.	.	8ddd	4f	4B-	4BB-
.	.	.	.	8ddd	.	.	.
.	.	.	.	8ddd	4f	4B-	4BB-
.	.	.	.	8ddd	.	.	.
.	.	.	.	8ddd	4f	4B-	4BB-
.	.	.	.	8ddd	.	.	.
=172	=172	=172	=172	=172	=172	=172	=172
1ff]	1dd]	1cc]	1c]	8ddd	4f	4B-	4BB-
.	.	.	.	8ccc	.	.	.
.	.	.	.	8bb-	4f	4B-	4BB-
.	.	.	.	8aa	.	.	.
.	.	.	.	8gg	4d	4B-	4BB-
.	.	.	.	8ff	.	.	.
.	.	.	.	8ee	4d	4B-	4BB-
.	.	.	.	8dd	.	.	.
=173	=173	=173	=173	=173	=173	=173	=173
2ee	2cc	2g	2g	2cc	4c	2c	[1C
.	.	.	.	.	4c	.	.
2r	2r	2r	2r	2r	4e	2r	.
.	.	.	.	.	4g	.	.
=174	=174	=174	=174	=174	=174	=174	=174
1ee	1b-	1r	1r	1ccc	4b-	4e	1C_
.	.	.	.	.	8ee	8g	.
.	.	.	.	.	8ff	8a	.
.	.	.	.	.	4gg	4b-	.
.	.	.	.	.	4b-	4e	.
=175	=175	=175	=175	=175	=175	=175	=175
2ff	2a	1r	1r	1ff	4a	4f	1C_
.	.	.	.	.	8a	8f	.
.	.	.	.	.	8b-	8g	.
2cc	2f	.	.	.	4cc	4a	.
.	.	.	.	.	4f	4f	.
=176	=176	=176	=176	=176	=176	=176	=176
2g	2e	2g	2G	4r	4e	2c	1C_
.	.	.	.	4ee	4g	.	.
2r	2r	2r	2r	4ee	4g	2r	.
.	.	.	.	4ff	4a	.	.
=177	=177	=177	=177	=177	=177	=177	=177
4r	4r	4r	4r	4gg	4b-	1r	1C_
4gg	4b-	4g	4G	4b-	4g	.	.
4ff	4a	4g	4G	4a	4f	.	.
4ee	4g	4g	4G	4g	4e	.	.
=178	=178	=178	=178	=178	=178	=178	=178
2ff	2a	2g	2G	4a	4f	2C 2c	1C_
.	.	.	.	4ff	4a	.	.
2r	2r	2r	2r	8ff	8a	2r	.
.	.	.	.	8ee	8g	.	.
.	.	.	.	8ff	8a	.	.
.	.	.	.	8gg	8b-	.	.
=179	=179	=179	=179	=179	=179	=179	=179
4r	4r	4r	4r	4aa	4cc	1r	1C_
4aa	4cc	4g	4G	4cc	4a	.	.
4gg	4b-	4g	4G	4b-	4g	.	.
4ff	4a	4g	4G	4a	4f	.	.
=180	=180	=180	=180	=180	=180	=180	=180
2gg	2b-	2g	2G	4b-	4g	2C 2c	1C_
.	.	.	.	4gg	4b-	.	.
2r	2r	2r	2r	8gg	8b-	2r	.
.	.	.	.	8ff	8a	.	.
.	.	.	.	8gg	8b-	.	.
.	.	.	.	8aa	8cc	.	.
=181	=181	=181	=181	=181	=181	=181	=181
4r	4r	4r	4r	4bb-	4dd	1r	2C]
4gg	4b-	4g	4G	4gg	4b-	.	.
4ff	4a	4g	4G	4ff	4a	.	2r
4ee	4g	4g	4G	4ee	4g	.	.
=182	=182	=182	=182	=182	=182	=182	=182
[1ff	[1a	2cc	2c	4ff	4a	4r	4r
.	.	.	.	2ff	2a	4d	4d
.	.	2r	2r	.	.	8d	8d
.	.	.	.	.	.	8c#	8c#
.	.	.	.	[4ff	[4a	8d	8d
.	.	.	.	.	.	8e	8e
=183	=183	=183	=183	=183	=183	=183	=183
1ff_	1a]	1r	1r	4ff]	4a]	4f	4f
.	.	.	.	2ff	2a	4d	4d
.	.	.	.	.	.	4c	4c
.	.	.	.	[4ff	4a	4d	4d
=184	=184	=184	=184	=184	=184	=184	=184
1ff_	[1dd	1r	1r	4ff]	4dd	4B-	4B-
.	.	.	.	2ff	2dd	4b-	4B-
.	.	.	.	.	.	8b-	8B-
.	.	.	.	.	.	8a	8A
.	.	.	.	[4ff	[4dd	8b-	8B-
.	.	.	.	.	.	8cc	8c
=185	=185	=185	=185	=185	=185	=185	=185
1ff]	1dd_	1r	1r	4ff]	4dd]	4dd	4d
.	.	.	.	2ff	2dd	4b-	4B-
.	.	.	.	.	.	4a	4A
.	.	.	.	4ff	[4dd	4b-	4B-
=186	=186	=186	=186	=186	=186	=186	=186
[1bb-	1dd_	1r	1r	4bb-	4dd]	4g	4G
.	.	.	.	2bb-	2dd	4g	4G
.	.	.	.	.	.	8g	8G
.	.	.	.	.	.	8f#	8F#
.	.	.	.	[4bb-	[4dd	8g	8G
.	.	.	.	.	.	8a	8A
=187	=187	=187	=187	=187	=187	=187	=187
1bb-_	1dd]	1r	1r	4bb-]	4dd]	4b-	4B-
.	.	.	.	2bb-	2dd	4g	4G
.	.	.	.	.	.	4f	4F
.	.	.	.	4bb-	4dd	4g	4G
=188	=188	=188	=188	=188	=188	=188	=188
2bb-]	2cc	1r	1r	2bb-	4cc	4e	4E
.	.	.	.	.	4gg	4c	4C
2aa	[2ff	.	.	2aa	[2ff	4f	4F
.	.	.	.	.	.	4a	4A
=189	=189	=189	=189	=189	=189	=189	=189
1gg	2ff]	1r	1r	1gg	2ff]	4cc	4c
.	.	.	.	.	.	4g	4G
.	2ee	.	.	.	2ee	4cc	4c
.	.	.	.	.	.	4c	4c
=190	=190	=190	=190	=190	=190	=190	=190
1ff	1ff	1cc	1cc	1ff	1ff	1f	1f
=191	=191	=191	=191	=191	=191	=191	=191
1cc	1cc	1g	1g	1cc	1cc	1c	1c
=192	=192	=192	=192	=192	=192	=192	=192
4r	4r	1r	1r	4r	4r	4r	4r
4a	4a	.	.	4a	4a	4A	4A
4a	4a	.	.	4a	4a	4A	4A
4b-	4b-	.	.	4b-	4b-	4B-	4B-
=193	=193	=193	=193	=193	=193	=193	=193
4cc	4cc	1r	1r	4cc	4cc	4c	4c
4a	4a	.	.	4a	4a	4A	4A
4b-	4b-	.	.	4b-	4b-	4B-	4B-
4cc	4cc	.	.	4cc	4cc	4c	4c
=194	=194	=194	=194	=194	=194	=194	=194
4dd	4dd	1r	1r	4dd	4dd	4d	4d
4b-	4b-	.	.	4b-	4b-	4B-	4B-
4ee	4ee	.	.	4ee	4ee	4e	4e
4cc	4cc	.	.	4cc	4cc	4c	4c
=195	=195	=195	=195	=195	=195	=195	=195
4ff	4ff	1r	1r	4ff	4ff	4f	4f
4cc	4cc	.	.	4cc	4cc	4c	4c
4dd	4dd	.	.	4dd	4dd	4d	4d
4a	4a	.	.	4a	4a	4A	4A
=196	=196	=196	=196	=196	=196	=196	=196
4b-	4b-	2r	2r	4b-	4b-	4B-	4B-
4g	4g	.	.	4g	4g	4G	4G
4cc	4cc	2dd	2g	4cc	4cc	4c	4c
4c	4c	.	.	4c	4c	4C	4C
=197	=197	=197	=197	=197	=197	=197	=197
2f	2f	2cc	2e	2f	2f	2F	2F
2ff	2a	2cc	2e	2ff 2a	2ff 2a	2f	2FF
=198	=198	=198	=198	=198	=198	=198	=198
2ff	2a	2cc	2e	2ff 2a	2ff 2a	2f	2FF
2r	2r	2r	2r	2r	2r	2r	2r
==	==	==	==	==	==	==	==
*-	*-	*-	*-	*-	*-	*-	*-
!!!RWG1: This file contains only pitch and duration data.
!!!RWG2: Transposing instruments are not transposed.
!!!RWG3: Spines may have incompatible meters.
!!!RWG4: Durations of rests and tied notes may be interpreted.
!!!RWG: Key is interpreted using the Humdrum key tool.
!!!AFT: stage1 
!!!END: 2000/12/13
!!format changes:
!!content changes:
!!public access: complete
!!!KEY: 3156372780
!!!EMD: Converted from MuseData to Humdrum Dec 16, 2000, by Andreas Kornstaedt using muse2kern.
